images/sidebar_tariff.svg

<svg width="20" height="26" viewBox="0 0 20 26" fill="none" xmlns="http://www.w3.org/2000/svg">
<path d="M11.9098 16.0163C14.0554 16.0163 16.1132 15.1726 17.6304 13.6708C19.1476 12.169 20 10.132 20 8.00815C20 5.88426 19.1476 3.84735 17.6304 2.34553C16.1132 0.843714 14.0554 0 11.9098 0H0V2.42213H3.05433V13.5942H0V16.0163H3.05433V19.3392H0V21.7613H3.05433V26H5.50128V21.7613H12.8465V19.3392H5.50128V16.0163H11.9098ZM5.50128 2.42213H11.9098C12.6509 2.42213 13.3847 2.56661 14.0694 2.84734C14.754 3.12806 15.3761 3.53952 15.9002 4.05823C16.4242 4.57695 16.8399 5.19274 17.1235 5.87047C17.4071 6.5482 17.553 7.27458 17.553 8.00815C17.553 8.74172 17.4071 9.4681 17.1235 10.1458C16.8399 10.8236 16.4242 11.4394 15.9002 11.9581C15.3761 12.4768 14.754 12.8882 14.0694 13.169C13.3847 13.4497 12.6509 13.5942 11.9098 13.5942H5.50128V2.42213Z" fill="white"/>
</svg>

<svg width="20" height="26" fill="none" xmlns="http://www.w3.org/2000/svg"><path d="M11.91 16.016a8.132 8.132 0 0 0 5.72-2.345A7.967 7.967 0 0 0 20 8.008c0-2.124-.852-4.16-2.37-5.662A8.132 8.132 0 0 0 11.91 0H0v2.422h3.054v11.172H0v2.422h3.054v3.323H0v2.422h3.054V26h2.447v-4.239h7.346V19.34H5.5v-3.323h6.409ZM5.5 2.422h6.409c.74 0 1.475.145 2.16.425.684.281 1.306.693 1.83 1.211.524.519.94 1.135 1.223 1.812a5.537 5.537 0 0 1-1.223 6.088 5.65 5.65 0 0 1-1.83 1.211 5.694 5.694 0 0 1-2.16.425H5.5V2.422Z" fill="#fff"/></svg>
